/* XPM */
static const char *xpm_[] = {
/* columns rows colors chars-per-pixel */
"320 80 2 1 ",
"  c #fdff00",
". c None",
/* pixels */
"................................................................................................................................................................................................................................................................................................................................",
"................................................................................................................................................................................................................................................................................................................................",
"................................................................................................................................................................................................................................................................................................................................",
"................................................................................................................................................................................................................................................................................................................................",
"................................................................................................................................................................................................................................................................................................................................",
"................................................................................................................................................................................................................................................................................................................................",
"................................................................................................................................................................................................................................................................................................................................",
"................................................................................................................................................................................................................................................................................................................................",
"................................................................................................................................................................................................................................................................................................................................",
"................................................................................................................................................................................................................................................................................................................................",
".......    ..................    ..............    ..................    ..............    ..................    ...............................................................................................................................................................................................................",
".......    ..................    ..............    ..................    ..............    ..................    ...............................................................................................................................................................................................................",
".......      ..............      ..............      ..............      ..............      ..............      ..............  ......................  .......................................................................................................................................................................",
".......      ..............      ..............      ..............      ..............      ..............      ..............  ......................  .......................................................................................................................................................................",
".......        ..........        ..............        ..........        ..............        ..........        ............        ..............        .....................................................................................................................................................................",
".......        ..........        ..............        ..........        ..............        ..........        ............        ..............        .....................................................................................................................................................................",
".......          ......          ..............          ......          ..............          ......          ............          ..........          ..........      ..................      .............................................................................................................................",
".......          ......          ..............          ......          ..............          ......          ............          ..........          ..........      ..................      .............................................................................................................................",
".......            ..            ..............            ..            ..............            ..            ............              ..              ..........            ......            ..........        ..............        .....................................................................................",
".......            ..            ..............            ..            ..............            ..            ............              ..              ..........            ......            ..........        ..............        .....................................................................................",
".........                      ..................                      ..................                      ................                          ............                              ..........                              ..................              ..............................      .................",
".........                      ..................                      ..................                      ................                          ............                              ..........                              ..................              ..............................      .................",
".........                      ..................                      ..................                      ................                          ..............                          ............                              ..........                              ..................              .............",
".........                      ..................                      ..................                      ................                          ..............                          ............                              ..........                              ..................              .............",
"...........                  ......................                  ......................                  ....................                      ..................                      ................                          ............                              ............                          .......",
"...........                  ......................                  ......................                  ....................                      ..................                      ................                          ............                              ............                          .......",
"...............          ..............................          ..............................          ............................      ..      ..........................      ..      ........................        ..        ..................                          ............                              .....",
"...............          ..............................          ..............................          ............................      ..      ..........................      ..      ........................        ..        ..................                          ............                              .....",
"...........................................................................................................................................................................................................................................................        ..        ..................            ..            .......",
"...........................................................................................................................................................................................................................................................        ..        ..................            ..            .......",
"...................................................................................................................................................................................................................................................................................................      ......      ...........",
"...................................................................................................................................................................................................................................................................................................      ......      ...........",
"................................................................................................................................................................................................................................................................................................................................",
"................................................................................................................................................................................................................................................................................................................................",
"................................................................................................................................................................................................................................................................................................................................",
"................................................................................................................................................................................................................................................................................................................................",
"................................................................................................................................................................................................................................................................................................................................",
"................................................................................................................................................................................................................................................................................................................................",
"................................................................................................................................................................................................................................................................................................................................",
"................................................................................................................................................................................................................................................................................................................................",
"................................................................................................................................................................................................................................................................................................................................",
"................................................................................................................................................................................................................................................................................................................................",
"................................................................................................................................................................................................................................................................................................................................",
"................................................................................................................................................................................................................................................................................................................................",
"................................................................................................................................................................................................................................................................................................................................",
"................................................................................................................................................................................................................................................................................................................................",
"................................................................................................................................................................................................................................................................................................................................",
"................................................................................................................................................................................................................................................................................................................................",
"................................................................................................................................................................................................................................................................................................................................",
"................................................................................................................................................................................................................................................................................................................................",
"................................................................................................................................................................................................................................................................................................................................",
"................................................................................................................................................................................................................................................................................................................................",
"................................................................................................................................................................................................................................................................................................................................",
"................................................................................................................................................................................................................................................................................................................................",
"...............................................................................................................................................................................  ......  .......................................................................................................................................",
"...............................................................................................................................................................................  ......  .......................................................................................................................................",
"...........................................................................................................................................................................  ....  ..  .........................................................................................................................................",
"...........................................................................................................................................................................  ....  ..  .........................................................................................................................................",
".............................................................................................................................................................................  ............  ...................................................................................................................................",
".............................................................................................................................................................................  ............  ...................................................................................................................................",
"...................  ......................................  ......................................  ......................................  ............................................  .....................................................................................................................................",
"...................  ......................................  ......................................  ......................................  ............................................  .....................................................................................................................................",
".................      ..................................      ....................................  ......................................  ............................    ...................................................................................................................................................",
".................      ..................................      ....................................  ......................................  ............................    ...................................................................................................................................................",
".............              ............................          ................................      ....................................  ..............................................    .................................................................................................................................",
".............              ............................          ................................      ....................................  ..............................................    .................................................................................................................................",
"...........                  ..........................          ................................      ....................................  ................................  .................................................................................................................................................",
"...........                  ..........................          ................................      ....................................  ................................  .................................................................................................................................................",
".......                          ....................              ..............................      ....................................  ..............................  ............  .....................................................................................................................................",
".......                          ....................              ..............................      ....................................  ..............................  ............  .....................................................................................................................................",
".......            ..            ..................                  ..........................          ..................................  ....................................  ..  ....  ...................................................................................................................................",
".......            ..            ..................                  ..........................          ..................................  ....................................  ..  ....  ...................................................................................................................................",
".........        ......        ......................      ..      ..............................  ..  ........................................................................  ......  .......................................................................................................................................",
".........        ......        ......................      ..      ..............................  ..  ........................................................................  ......  .......................................................................................................................................",
"................................................................................................................................................................................................................................................................................................................................",
"................................................................................................................................................................................................................................................................................................................................",
"................................................................................................................................................................................................................................................................................................................................",
"................................................................................................................................................................................................................................................................................................................................",
"................................................................................................................................................................................................................................................................................................................................",
"................................................................................................................................................................................................................................................................................................................................"
};
