/* XPM */
static const char *xpm_[] = {
/* columns rows colors chars-per-pixel */
"160 40 2 1 ",
"  c #fdff00",
". c None",
/* pixels */
"................................................................................................................................................................",
"................................................................................................................................................................",
"................................................................................................................................................................",
"................................................................................................................................................................",
"................................................................................................................................................................",
"................................................................................................................................................................",
"................................................................................................................................................................",
"...............          ..............................          ..............................          ..............................          ...............",
"...............          ..............................          ..............................          ..............................          ...............",
"...............              ......................                  ......................                  ......................                  ...........",
"...............              ......................                  ......................                  ......................                  ...........",
".................              ..................                      ..................                      ..................                      .........",
".................              ..................                      ..................                      ..................                      .........",
"...................            ..................                      ..................                      ..................                      .........",
"...................            ..................                      ..................                      ..................                      .........",
".....................            ....................                    ..............                          ....................                    .......",
".....................            ....................                    ..............                          ....................                    .......",
".......................          ..........................              ..............                          ..........................              .......",
".......................          ..........................              ..............                          ..........................              .......",
".........................        ................................        ..............                          ................................        .......",
".........................        ................................        ..............                          ................................        .......",
".......................          ..........................              ..............                          ..........................              .......",
".......................          ..........................              ..............                          ..........................              .......",
".....................            ....................                    ..............                          ....................                    .......",
".....................            ....................                    ..............                          ....................                    .......",
"...................            ..................                      ..................                      ..................                      .........",
"...................            ..................                      ..................                      ..................                      .........",
".................              ..................                      ..................                      ..................                      .........",
".................              ..................                      ..................                      ..................                      .........",
"...............              ......................                  ......................                  ......................                  ...........",
"...............              ......................                  ......................                  ......................                  ...........",
"...............          ..............................          ..............................          ..............................          ...............",
"...............          ..............................          ..............................          ..............................          ...............",
"................................................................................................................................................................",
"................................................................................................................................................................",
"................................................................................................................................................................",
"................................................................................................................................................................",
"................................................................................................................................................................",
"................................................................................................................................................................",
"................................................................................................................................................................"
};
