/* XPM */
static char *xpm_[] = {
/* columns rows colors chars-per-pixel */
"160 40 2 1 ",
"  c None",
". c #fdff00",
/* pixels */
"                                                                                                                                                                ",
"                                                                                                                                                                ",
"                                                                                                                                                                ",
"                                                                                                                                                                ",
"                                                                                                                                                                ",
"                                                                                                                                                                ",
"                                                                                                                                                                ",
"                                                                                               ..........                                                       ",
"                                                                                               ..........                                                       ",
"                                                   ....          ....                      ..................                      ....          ....           ",
"                                                   ....          ....                      ..................                      ....          ....           ",
"                                                 ......          ......                  ......................                  ......          ......         ",
"                                                 ......          ......                  ......................                  ......          ......         ",
"                                                 ........      ........                  ......................                  ........      ........         ",
"                                                 ........      ........                  ......................                  ........      ........         ",
"       ....                  ....              ..........      ..........              ..........................              ..........      ..........       ",
"       ....                  ....              ..........      ..........              ..........................              ..........      ..........       ",
"       ......              ......              ..........      ..........              ..........................              ..........      ..........       ",
"       ......              ......              ..........      ..........              ..........................              ..........      ..........       ",
"       ........          ........              ............  ............              ..........................              ............  ............       ",
"       ........          ........              ............  ............              ..........................              ............  ............       ",
"       ..........      ..........              ............  ............              ..........................              ............  ............       ",
"       ..........      ..........              ............  ............              ..........................              ............  ............       ",
"       ............  ............              ............  ............              ..........................              ............  ............       ",
"       ............  ............              ............  ............              ..........................              ............  ............       ",
"         ......................                  ......................                  ......................                  ......................         ",
"         ......................                  ......................                  ......................                  ......................         ",
"         ......................                  ......................                  ......................                  ......................         ",
"         ......................                  ......................                  ......................                  ......................         ",
"           ..................                      ..................                      ..................                      ..................           ",
"           ..................                      ..................                      ..................                      ..................           ",
"               ..........                              ..........                              ..........                              ..........               ",
"               ..........                              ..........                              ..........                              ..........               ",
"                                                                                                                                                                ",
"                                                                                                                                                                ",
"                                                                                                                                                                ",
"                                                                                                                                                                ",
"                                                                                                                                                                ",
"                                                                                                                                                                ",
"                                                                                                                                                                "
};
