/* XPM */
static char *_224087e569446378c7fe0afb5060a4eek6GlkXkSt2R8fB9[] = {
/* columns rows colors chars-per-pixel */
"320 80 2 1 ",
"  c None",
". c #fdff00",
/* pixels */
"                                                                                                                                                                                                                                                                                                                                ",
"                                                                                                                                                                                                                                                                                                                                ",
"                                                                                                                                                                                                                                                                                                                                ",
"                                                                                                                                                                                                                                                                                                                                ",
"                                                                                                                                                                                                                                                                                                                                ",
"                                                                                                                                                                                                                                                                                                                                ",
"                                                                                                                                                                                                                                                                                                                                ",
"                                                                                                                                                                                                                                                                                                                                ",
"                                                                                                                                                                                                                                                                                                                                ",
"                                                                                                                                                                                                                                                                                                                                ",
"                                               ....                  ....              ....                  ....                                                                                                                                                                                                               ",
"       ....                  ....              ....                  ....              ....                  ....                                                                                                                                                                                                               ",
"       ....                  ....              ......              ......              ......              ......              ..                      ..                                                                                                                                                                       ",
"       ......              ......              ......              ......              ......              ......              ..                      ..                                                                                                                                                                       ",
"       ......              ......              ........          ........              ........          ........            ........              ........                                                                                                                                                                     ",
"       ........          ........              ........          ........              ........          ........            ........              ........                                                                                                                                                                     ",
"       ........          ........              ..........      ..........              ..........      ..........            ..........          ..........          ......                  ......                                                                                                                             ",
"       ..........      ..........              ..........      ..........              ..........      ..........            ..........          ..........          ......                  ......                                                                                                                             ",
"       ..........      ..........              ............  ............              ............  ............            ..............  ..............          ............      ............          ........              ........                                                                                     ",
"       ............  ............              ............  ............              ............  ............            ..............  ..............          ............      ............          ........              ........                                                                                     ",
"       ............  ............                ......................                  ......................                ..........................            ..............................          ..............................                  ..............                              ......                 ",
"         ......................                  ......................                  ......................                ..........................            ..............................          ..............................                  ..............                              ......                 ",
"         ......................                  ......................                  ......................                ..........................              ..........................            ..............................          ..............................                  ..............             ",
"         ......................                  ......................                  ......................                ..........................              ..........................            ..............................          ..............................                  ..............             ",
"         ......................                    ..................                      ..................                    ......................                  ......................                ..........................            ..............................            ..........................       ",
"           ..................                      ..................                      ..................                    ......................                  ......................                ..........................            ..............................            ..........................       ",
"           ..................                          ..........                              ..........                            ......  ......                          ......  ......                        ........  ........                  ..........................            ..............................     ",
"               ..........                              ..........                              ..........                            ......  ......                          ......  ......                        ........  ........                  ..........................            ..............................     ",
"               ..........                                                                                                                                                                                                                                  ........  ........                  ............  ............       ",
"                                                                                                                                                                                                                                                           ........  ........                  ............  ............       ",
"                                                                                                                                                                                                                                                                                                   ......      ......           ",
"                                                                                                                                                                                                                                                                                                   ......      ......           ",
"                                                                                                                                                                                                                                                                                                                                ",
"                                                                                                                                                                                                                                                                                                                                ",
"                                                                                                                                                                                                                                                                                                                                ",
"                                                                                                                                                                                                                                                                                                                                ",
"                                                                                                                                                                                                                                                                                                                                ",
"                                                                                                                                                                                                                                                                                                                                ",
"                                                                                                                                                                                                                                                                                                                                ",
"                                                                                                                                                                                                                                                                                                                                ",
"                                                                                                                                                                                                                                                                                                                                ",
"                                                                                                                                                                                                                                                                                                                                ",
"                                                                                                                                                                                                                                                                                                                                ",
"                                                                                                                                                                                                                                                                                                                                ",
"                                                                                                                                                                                                                                                                                                                                ",
"                                                                                                                                                                                                                                                                                                                                ",
"                                                                                                                                                                                                                                                                                                                                ",
"                                                                                                                                                                                                                                                                                                                                ",
"                                                                                                                                                                                                                                                                                                                                ",
"                                                                                                                                                                                                                                                                                                                                ",
"                                                                                                                                                                                                                                                                                                                                ",
"                                                                                                                                                                                                                                                                                                                                ",
"                                                                                                                                                                                                                                                                                                                                ",
"                                                                                                                                                                                                                                                                                                                                ",
"                                                                                                                                                                               ..      ..                                                                                                                                       ",
"                                                                                                                                                                               ..      ..                                                                                                                                       ",
"                                                                                                                                                                           ..    ..  ..                                                                                                                                         ",
"                                                                                                                                                                           ..    ..  ..                                                                                                                                         ",
"                                                                                                                                                                             ..            ..                                                                                                                                   ",
"                                                                                                                                                                             ..            ..                                                                                                                                   ",
"                   ..                                      ..                                      ..                                      ..                                            ..                                                                                                                                     ",
"                   ..                                      ..                                      ..                                      ..                                            ..                                                                                                                                     ",
"                 ......                                  ......                                    ..                                      ..                            ....                                                                                                                                                   ",
"                 ......                                  ......                                    ..                                      ..                            ....                                                                                                                                                   ",
"             ..............                            ..........                                ......                                    ..                                              ....                                                                                                                                 ",
"             ..............                            ..........                                ......                                    ..                                              ....                                                                                                                                 ",
"           ..................                          ..........                                ......                                    ..                                ..                                                                                                                                                 ",
"           ..................                          ..........                                ......                                    ..                                ..                                                                                                                                                 ",
"       ..........................                    ..............                              ......                                    ..                              ..            ..                                                                                                                                     ",
"       ..........................                    ..............                              ......                                    ..                              ..            ..                                                                                                                                     ",
"       ............  ............                  ..................                          ..........                                  ..                                    ..  ..    ..                                                                                                                                   ",
"       ............  ............                  ..................                          ..........                                  ..                                    ..  ..    ..                                                                                                                                   ",
"         ........      ........                      ......  ......                              ..  ..                                                                        ..      ..                                                                                                                                       ",
"         ........      ........                      ......  ......                              ..  ..                                                                        ..      ..                                                                                                                                       ",
"                                                                                                                                                                                                                                                                                                                                ",
"                                                                                                                                                                                                                                                                                                                                ",
"                                                                                                                                                                                                                                                                                                                                ",
"                                                                                                                                                                                                                                                                                                                                ",
"                                                                                                                                                                                                                                                                                                                                ",
"                                                                                                                                                                                                                                                                                                                                "
};
