/* XPM */
static char *cbe58a38122a4d4dd4243de4db24d8b6N5KqQYp8BHA0xBRm[] = {
/* columns rows colors chars-per-pixel */
"160 40 2 1 ",
"  c None",
". c #fdff00",
/* pixels */
"                                                                                                                                                                ",
"                                                                                                                                                                ",
"                                                                                                                                                                ",
"                                                                                                                                                                ",
"                                                                                                                                                                ",
"                                                                                                                                                                ",
"                                                                                                                                                                ",
"               ..........                              ..........                              ..........                              ..........               ",
"               ..........                              ..........                              ..........                              ..........               ",
"           ..............                          ..................                      ..................                      ..................           ",
"           ..............                          ..................                      ..................                      ..................           ",
"         ..............                          ......................                  ......................                  ......................         ",
"         ..............                          ......................                  ......................                  ......................         ",
"         ............                            ......................                  ......................                  ......................         ",
"         ............                            ......................                  ......................                  ......................         ",
"       ............                            ....................                    ..........................              ....................             ",
"       ............                            ....................                    ..........................              ....................             ",
"       ..........                              ..............                          ..........................              ..............                   ",
"       ..........                              ..............                          ..........................              ..............                   ",
"       ........                                ........                                ..........................              ........                         ",
"       ........                                ........                                ..........................              ........                         ",
"       ..........                              ..............                          ..........................              ..............                   ",
"       ..........                              ..............                          ..........................              ..............                   ",
"       ............                            ....................                    ..........................              ....................             ",
"       ............                            ....................                    ..........................              ....................             ",
"         ............                            ......................                  ......................                  ......................         ",
"         ............                            ......................                  ......................                  ......................         ",
"         ..............                          ......................                  ......................                  ......................         ",
"         ..............                          ......................                  ......................                  ......................         ",
"           ..............                          ..................                      ..................                      ..................           ",
"           ..............                          ..................                      ..................                      ..................           ",
"               ..........                              ..........                              ..........                              ..........               ",
"               ..........                              ..........                              ..........                              ..........               ",
"                                                                                                                                                                ",
"                                                                                                                                                                ",
"                                                                                                                                                                ",
"                                                                                                                                                                ",
"                                                                                                                                                                ",
"                                                                                                                                                                ",
"                                                                                                                                                                "
};
