/* XPM */
static const char *xpm_[] = {
/* columns rows colors chars-per-pixel */
"80 160 4 1 ",
"  c #2121FF",
". c #EA82E5",
"X c #DEDEFF",
"o c None",
/* pixels */
"oooooooooooooooooooooooooooooooooooooooooooooooooooooooooooooooooooooooooooooooo",
"oooooooooooooooooooooooooooooooooooooooooooooooooooooooooooooooooooooooooooooooo",
"oooooooooooooooooooooooooooooooooooooooooooooooooooooooooooooooooooooooooooooooo",
"oooooooooooooooooooooooooooooooooooooooooooooooooooooooooooooooooooooooooooooooo",
"oooooooooooooooooooooooooooooooooooooooooooooooooooooooooooooooooooooooooooooooo",
"oooooooooooooooooooooooooooooooooooooooooooooooooooooooooooooooooooooooooooooooo",
"oooooooooooooooo........oooooooooooooooooooooooooooooooo........oooooooooooooooo",
"oooooooooooooooo........oooooooooooooooooooooooooooooooo........oooooooooooooooo",
"oooooooooooo    ........    oooooooooooooooooooooooo    ........    oooooooooooo",
"oooooooooooo    ........    oooooooooooooooooooooooo    ........    oooooooooooo",
"ooooooooooXX    XX....XX    XXooooooooooooooooooooXX    XX....XX    XXoooooooooo",
"ooooooooooXX    XX....XX    XXooooooooooooooooooooXX    XX....XX    XXoooooooooo",
"oooooooo..XXXXXXXX....XXXXXXXX..oooooooooooooooo..XXXXXXXX....XXXXXXXX..oooooooo",
"oooooooo..XXXXXXXX....XXXXXXXX..oooooooooooooooo..XXXXXXXX....XXXXXXXX..oooooooo",
"oooooooo..XXXXXXXX....XXXXXXXX..oooooooooooooooo..XXXXXXXX....XXXXXXXX..oooooooo",
"oooooooo..XXXXXXXX....XXXXXXXX..oooooooooooooooo..XXXXXXXX....XXXXXXXX..oooooooo",
"oooooooo....XXXX........XXXX....oooooooooooooooo....XXXX........XXXX....oooooooo",
"oooooooo....XXXX........XXXX....oooooooooooooooo....XXXX........XXXX....oooooooo",
"oooooo............................oooooooooooo............................oooooo",
"oooooo............................oooooooooooo............................oooooo",
"oooooo............................oooooooooooo............................oooooo",
"oooooo............................oooooooooooo............................oooooo",
"oooooo............................oooooooooooo............................oooooo",
"oooooo............................oooooooooooo............................oooooo",
"oooooo............................oooooooooooo............................oooooo",
"oooooo............................oooooooooooo............................oooooo",
"oooooo............................oooooooooooo............................oooooo",
"oooooo............................oooooooooooo............................oooooo",
"oooooo............................oooooooooooo............................oooooo",
"oooooo............................oooooooooooo............................oooooo",
"oooooo....oo......oooo......oo....oooooooooooo........oo........oo........oooooo",
"oooooo....oo......oooo......oo....oooooooooooo........oo........oo........oooooo",
"oooooo..oooooo....oooo....oooooo..oooooooooooooo....oooooo....oooooo....oooooooo",
"oooooo..oooooo....oooo....oooooo..oooooooooooooo....oooooo....oooooo....oooooooo",
"oooooooooooooooooooooooooooooooooooooooooooooooooooooooooooooooooooooooooooooooo",
"oooooooooooooooooooooooooooooooooooooooooooooooooooooooooooooooooooooooooooooooo",
"oooooooooooooooooooooooooooooooooooooooooooooooooooooooooooooooooooooooooooooooo",
"oooooooooooooooooooooooooooooooooooooooooooooooooooooooooooooooooooooooooooooooo",
"oooooooooooooooooooooooooooooooooooooooooooooooooooooooooooooooooooooooooooooooo",
"oooooooooooooooooooooooooooooooooooooooooooooooooooooooooooooooooooooooooooooooo",
"oooooooooooooooooooooooooooooooooooooooooooooooooooooooooooooooooooooooooooooooo",
"oooooooooooooooooooooooooooooooooooooooooooooooooooooooooooooooooooooooooooooooo",
"oooooooooooooooooooooooooooooooooooooooooooooooooooooooooooooooooooooooooooooooo",
"oooooooooooooooooooooooooooooooooooooooooooooooooooooooooooooooooooooooooooooooo",
"oooooooooooooooooooooooooooooooooooooooooooooooooooooooooooooooooooooooooooooooo",
"oooooooooooooooooooooooooooooooooooooooooooooooooooooooooooooooooooooooooooooooo",
"oooooooooooooooo........oooooooooooooooooooooooooooooooo........oooooooooooooooo",
"oooooooooooooooo........oooooooooooooooooooooooooooooooo........oooooooooooooooo",
"oooooooooooo................oooooooooooooooooooooooo................oooooooooooo",
"oooooooooooo................oooooooooooooooooooooooo................oooooooooooo",
"oooooooooo....................oooooooooooooooooooo....................oooooooooo",
"oooooooooo....................oooooooooooooooooooo....................oooooooooo",
"oooooooo......XXXX........XXXX..oooooooooooooooo......XXXX........XXXX..oooooooo",
"oooooooo......XXXX........XXXX..oooooooooooooooo......XXXX........XXXX..oooooooo",
"oooooooo....XXXXXXXX....XXXXXXXXoooooooooooooooo....XXXXXXXX....XXXXXXXXoooooooo",
"oooooooo....XXXXXXXX....XXXXXXXXoooooooooooooooo....XXXXXXXX....XXXXXXXXoooooooo",
"oooooooo....XXXX    ....XXXX    oooooooooooooooo....XXXX    ....XXXX    oooooooo",
"oooooooo....XXXX    ....XXXX    oooooooooooooooo....XXXX    ....XXXX    oooooooo",
"oooooo......XXXX    ....XXXX    ..oooooooooooo......XXXX    ....XXXX    ..oooooo",
"oooooo......XXXX    ....XXXX    ..oooooooooooo......XXXX    ....XXXX    ..oooooo",
"oooooo........XXXX........XXXX....oooooooooooo........XXXX........XXXX....oooooo",
"oooooo........XXXX........XXXX....oooooooooooo........XXXX........XXXX....oooooo",
"oooooo............................oooooooooooo............................oooooo",
"oooooo............................oooooooooooo............................oooooo",
"oooooo............................oooooooooooo............................oooooo",
"oooooo............................oooooooooooo............................oooooo",
"oooooo............................oooooooooooo............................oooooo",
"oooooo............................oooooooooooo............................oooooo",
"oooooo............................oooooooooooo............................oooooo",
"oooooo............................oooooooooooo............................oooooo",
"oooooo....oo......oooo......oo....oooooooooooo........oo........oo........oooooo",
"oooooo....oo......oooo......oo....oooooooooooo........oo........oo........oooooo",
"oooooo..oooooo....oooo....oooooo..oooooooooooooo....oooooo....oooooo....oooooooo",
"oooooo..oooooo....oooo....oooooo..oooooooooooooo....oooooo....oooooo....oooooooo",
"oooooooooooooooooooooooooooooooooooooooooooooooooooooooooooooooooooooooooooooooo",
"oooooooooooooooooooooooooooooooooooooooooooooooooooooooooooooooooooooooooooooooo",
"oooooooooooooooooooooooooooooooooooooooooooooooooooooooooooooooooooooooooooooooo",
"oooooooooooooooooooooooooooooooooooooooooooooooooooooooooooooooooooooooooooooooo",
"oooooooooooooooooooooooooooooooooooooooooooooooooooooooooooooooooooooooooooooooo",
"oooooooooooooooooooooooooooooooooooooooooooooooooooooooooooooooooooooooooooooooo",
"oooooooooooooooooooooooooooooooooooooooooooooooooooooooooooooooooooooooooooooooo",
"oooooooooooooooooooooooooooooooooooooooooooooooooooooooooooooooooooooooooooooooo",
"oooooooooooooooooooooooooooooooooooooooooooooooooooooooooooooooooooooooooooooooo",
"oooooooooooooooooooooooooooooooooooooooooooooooooooooooooooooooooooooooooooooooo",
"oooooooooooooooooooooooooooooooooooooooooooooooooooooooooooooooooooooooooooooooo",
"oooooooooooooooooooooooooooooooooooooooooooooooooooooooooooooooooooooooooooooooo",
"oooooooooooooooo........oooooooooooooooooooooooooooooooo........oooooooooooooooo",
"oooooooooooooooo........oooooooooooooooooooooooooooooooo........oooooooooooooooo",
"oooooooooooo................oooooooooooooooooooooooo................oooooooooooo",
"oooooooooooo................oooooooooooooooooooooooo................oooooooooooo",
"oooooooooo....................oooooooooooooooooooo....................oooooooooo",
"oooooooooo....................oooooooooooooooooooo....................oooooooooo",
"oooooooo..XXXX........XXXX......oooooooooooooooo..XXXX........XXXX......oooooooo",
"oooooooo..XXXX........XXXX......oooooooooooooooo..XXXX........XXXX......oooooooo",
"ooooooooXXXXXXXX....XXXXXXXX....ooooooooooooooooXXXXXXXX....XXXXXXXX....oooooooo",
"ooooooooXXXXXXXX....XXXXXXXX....ooooooooooooooooXXXXXXXX....XXXXXXXX....oooooooo",
"oooooooo    XXXX....    XXXX....oooooooooooooooo    XXXX....    XXXX....oooooooo",
"oooooooo    XXXX....    XXXX....oooooooooooooooo    XXXX....    XXXX....oooooooo",
"oooooo..    XXXX....    XXXX......oooooooooooo..    XXXX....    XXXX......oooooo",
"oooooo..    XXXX....    XXXX......oooooooooooo..    XXXX....    XXXX......oooooo",
"oooooo....XXXX........XXXX........oooooooooooo....XXXX........XXXX........oooooo",
"oooooo....XXXX........XXXX........oooooooooooo....XXXX........XXXX........oooooo",
"oooooo............................oooooooooooo............................oooooo",
"oooooo............................oooooooooooo............................oooooo",
"oooooo............................oooooooooooo............................oooooo",
"oooooo............................oooooooooooo............................oooooo",
"oooooo............................oooooooooooo............................oooooo",
"oooooo............................oooooooooooo............................oooooo",
"oooooo............................oooooooooooo............................oooooo",
"oooooo............................oooooooooooo............................oooooo",
"oooooo....oo......oooo......oo....oooooooooooo........oo........oo........oooooo",
"oooooo....oo......oooo......oo....oooooooooooo........oo........oo........oooooo",
"oooooo..oooooo....oooo....oooooo..oooooooooooooo....oooooo....oooooo....oooooooo",
"oooooo..oooooo....oooo....oooooo..oooooooooooooo....oooooo....oooooo....oooooooo",
"oooooooooooooooooooooooooooooooooooooooooooooooooooooooooooooooooooooooooooooooo",
"oooooooooooooooooooooooooooooooooooooooooooooooooooooooooooooooooooooooooooooooo",
"oooooooooooooooooooooooooooooooooooooooooooooooooooooooooooooooooooooooooooooooo",
"oooooooooooooooooooooooooooooooooooooooooooooooooooooooooooooooooooooooooooooooo",
"oooooooooooooooooooooooooooooooooooooooooooooooooooooooooooooooooooooooooooooooo",
"oooooooooooooooooooooooooooooooooooooooooooooooooooooooooooooooooooooooooooooooo",
"oooooooooooooooooooooooooooooooooooooooooooooooooooooooooooooooooooooooooooooooo",
"oooooooooooooooooooooooooooooooooooooooooooooooooooooooooooooooooooooooooooooooo",
"oooooooooooooooooooooooooooooooooooooooooooooooooooooooooooooooooooooooooooooooo",
"oooooooooooooooooooooooooooooooooooooooooooooooooooooooooooooooooooooooooooooooo",
"oooooooooooooooooooooooooooooooooooooooooooooooooooooooooooooooooooooooooooooooo",
"oooooooooooooooooooooooooooooooooooooooooooooooooooooooooooooooooooooooooooooooo",
"oooooooooooooooo........oooooooooooooooooooooooooooooooo........oooooooooooooooo",
"oooooooooooooooo........oooooooooooooooooooooooooooooooo........oooooooooooooooo",
"oooooooooooo................oooooooooooooooooooooooo................oooooooooooo",
"oooooooooooo................oooooooooooooooooooooooo................oooooooooooo",
"oooooooooo....................oooooooooooooooooooo....................oooooooooo",
"oooooooooo....................oooooooooooooooooooo....................oooooooooo",
"oooooooo........................oooooooooooooooo........................oooooooo",
"oooooooo........................oooooooooooooooo........................oooooooo",
"oooooooo....XXXX........XXXX....oooooooooooooooo....XXXX........XXXX....oooooooo",
"oooooooo....XXXX........XXXX....oooooooooooooooo....XXXX........XXXX....oooooooo",
"oooooooo..XXXXXXXX....XXXXXXXX..oooooooooooooooo..XXXXXXXX....XXXXXXXX..oooooooo",
"oooooooo..XXXXXXXX....XXXXXXXX..oooooooooooooooo..XXXXXXXX....XXXXXXXX..oooooooo",
"oooooo....XXXXXXXX....XXXXXXXX....oooooooooooo....XXXXXXXX....XXXXXXXX....oooooo",
"oooooo....XXXXXXXX....XXXXXXXX....oooooooooooo....XXXXXXXX....XXXXXXXX....oooooo",
"oooooo....XX    XX....XX    XX....oooooooooooo....XX    XX....XX    XX....oooooo",
"oooooo....XX    XX....XX    XX....oooooooooooo....XX    XX....XX    XX....oooooo",
"oooooo......    ........    ......oooooooooooo......    ........    ......oooooo",
"oooooo......    ........    ......oooooooooooo......    ........    ......oooooo",
"oooooo............................oooooooooooo............................oooooo",
"oooooo............................oooooooooooo............................oooooo",
"oooooo............................oooooooooooo............................oooooo",
"oooooo............................oooooooooooo............................oooooo",
"oooooo............................oooooooooooo............................oooooo",
"oooooo............................oooooooooooo............................oooooo",
"oooooo....oo......oooo......oo....oooooooooooo........oo........oo........oooooo",
"oooooo....oo......oooo......oo....oooooooooooo........oo........oo........oooooo",
"oooooo..oooooo....oooo....oooooo..oooooooooooooo....oooooo....oooooo....oooooooo",
"oooooo..oooooo....oooo....oooooo..oooooooooooooo....oooooo....oooooo....oooooooo",
"oooooooooooooooooooooooooooooooooooooooooooooooooooooooooooooooooooooooooooooooo",
"oooooooooooooooooooooooooooooooooooooooooooooooooooooooooooooooooooooooooooooooo",
"oooooooooooooooooooooooooooooooooooooooooooooooooooooooooooooooooooooooooooooooo",
"oooooooooooooooooooooooooooooooooooooooooooooooooooooooooooooooooooooooooooooooo",
"oooooooooooooooooooooooooooooooooooooooooooooooooooooooooooooooooooooooooooooooo",
"oooooooooooooooooooooooooooooooooooooooooooooooooooooooooooooooooooooooooooooooo"
};
