/* XPM */
static const char *xpm_[] = {
/* columns rows colors chars-per-pixel */
"80 80 5 1 ",
"  c red",
". c #2121FF",
"X c #FFB7AE",
"o c #DEDEFF",
"O c None",
/* pixels */
"OOOOOOOOOOOOOOOOOOOOOOOOOOOOOOOOOOOOOOOOOOOOOOOOOOOOOOOOOOOOOOOOOOOOOOOOOOOOOOOO",
"OOOOOOOOOOOOOOOOOOOOOOOOOOOOOOOOOOOOOOOOOOOOOOOOOOOOOOOOOOOOOOOOOOOOOOOOOOOOOOOO",
"OOOOOOOOOOOOOOOOOOOOOOOOOOOOOOOOOOOOOOOOOOOOOOOOOOOOOOOOOOOOOOOOOOOOOOOOOOOOOOOO",
"OOOOOOOOOOOOOOOOOOOOOOOOOOOOOOOOOOOOOOOOOOOOOOOOOOOOOOOOOOOOOOOOOOOOOOOOOOOOOOOO",
"OOOOOOOOOOOOOOOOOOOOOOOOOOOOOOOOOOOOOOOOOOOOOOOOOOOOOOOOOOOOOOOOOOOOOOOOOOOOOOOO",
"OOOOOOOOOOOOOOOOOOOOOOOOOOOOOOOOOOOOOOOOOOOOOOOOOOOOOOOOOOOOOOOOOOOOOOOOOOOOOOOO",
"OOOOOOOOOOOOOOOO........OOOOOOOOOOOOOOOOOOOOOOOOOOOOOOOO........OOOOOOOOOOOOOOOO",
"OOOOOOOOOOOOOOOO........OOOOOOOOOOOOOOOOOOOOOOOOOOOOOOOO........OOOOOOOOOOOOOOOO",
"OOOOOOOOOOOO................OOOOOOOOOOOOOOOOOOOOOOOO................OOOOOOOOOOOO",
"OOOOOOOOOOOO................OOOOOOOOOOOOOOOOOOOOOOOO................OOOOOOOOOOOO",
"OOOOOOOOOO....................OOOOOOOOOOOOOOOOOOOO....................OOOOOOOOOO",
"OOOOOOOOOO....................OOOOOOOOOOOOOOOOOOOO....................OOOOOOOOOO",
"OOOOOOOO........................OOOOOOOOOOOOOOOO........................OOOOOOOO",
"OOOOOOOO........................OOOOOOOOOOOOOOOO........................OOOOOOOO",
"OOOOOOOO........................OOOOOOOOOOOOOOOO........................OOOOOOOO",
"OOOOOOOO........................OOOOOOOOOOOOOOOO........................OOOOOOOO",
"OOOOOOOO......XXXX....XXXX......OOOOOOOOOOOOOOOO......XXXX....XXXX......OOOOOOOO",
"OOOOOOOO......XXXX....XXXX......OOOOOOOOOOOOOOOO......XXXX....XXXX......OOOOOOOO",
"OOOOOO........XXXX....XXXX........OOOOOOOOOOOO........XXXX....XXXX........OOOOOO",
"OOOOOO........XXXX....XXXX........OOOOOOOOOOOO........XXXX....XXXX........OOOOOO",
"OOOOOO............................OOOOOOOOOOOO............................OOOOOO",
"OOOOOO............................OOOOOOOOOOOO............................OOOOOO",
"OOOOOO............................OOOOOOOOOOOO............................OOOOOO",
"OOOOOO............................OOOOOOOOOOOO............................OOOOOO",
"OOOOOO....XXXX....XXXX....XXXX....OOOOOOOOOOOO....XXXX....XXXX....XXXX....OOOOOO",
"OOOOOO....XXXX....XXXX....XXXX....OOOOOOOOOOOO....XXXX....XXXX....XXXX....OOOOOO",
"OOOOOO..XX....XXXX....XXXX....XX..OOOOOOOOOOOO..XX....XXXX....XXXX....XX..OOOOOO",
"OOOOOO..XX....XXXX....XXXX....XX..OOOOOOOOOOOO..XX....XXXX....XXXX....XX..OOOOOO",
"OOOOOO............................OOOOOOOOOOOO............................OOOOOO",
"OOOOOO............................OOOOOOOOOOOO............................OOOOOO",
"OOOOOO....OO......OOOO......OO....OOOOOOOOOOOO........OO........OO........OOOOOO",
"OOOOOO....OO......OOOO......OO....OOOOOOOOOOOO........OO........OO........OOOOOO",
"OOOOOO..OOOOOO....OOOO....OOOOOO..OOOOOOOOOOOOOO....OOOOOO....OOOOOO....OOOOOOOO",
"OOOOOO..OOOOOO....OOOO....OOOOOO..OOOOOOOOOOOOOO....OOOOOO....OOOOOO....OOOOOOOO",
"OOOOOOOOOOOOOOOOOOOOOOOOOOOOOOOOOOOOOOOOOOOOOOOOOOOOOOOOOOOOOOOOOOOOOOOOOOOOOOOO",
"OOOOOOOOOOOOOOOOOOOOOOOOOOOOOOOOOOOOOOOOOOOOOOOOOOOOOOOOOOOOOOOOOOOOOOOOOOOOOOOO",
"OOOOOOOOOOOOOOOOOOOOOOOOOOOOOOOOOOOOOOOOOOOOOOOOOOOOOOOOOOOOOOOOOOOOOOOOOOOOOOOO",
"OOOOOOOOOOOOOOOOOOOOOOOOOOOOOOOOOOOOOOOOOOOOOOOOOOOOOOOOOOOOOOOOOOOOOOOOOOOOOOOO",
"OOOOOOOOOOOOOOOOOOOOOOOOOOOOOOOOOOOOOOOOOOOOOOOOOOOOOOOOOOOOOOOOOOOOOOOOOOOOOOOO",
"OOOOOOOOOOOOOOOOOOOOOOOOOOOOOOOOOOOOOOOOOOOOOOOOOOOOOOOOOOOOOOOOOOOOOOOOOOOOOOOO",
"OOOOOOOOOOOOOOOOOOOOOOOOOOOOOOOOOOOOOOOOOOOOOOOOOOOOOOOOOOOOOOOOOOOOOOOOOOOOOOOO",
"OOOOOOOOOOOOOOOOOOOOOOOOOOOOOOOOOOOOOOOOOOOOOOOOOOOOOOOOOOOOOOOOOOOOOOOOOOOOOOOO",
"OOOOOOOOOOOOOOOOOOOOOOOOOOOOOOOOOOOOOOOOOOOOOOOOOOOOOOOOOOOOOOOOOOOOOOOOOOOOOOOO",
"OOOOOOOOOOOOOOOOOOOOOOOOOOOOOOOOOOOOOOOOOOOOOOOOOOOOOOOOOOOOOOOOOOOOOOOOOOOOOOOO",
"OOOOOOOOOOOOOOOOOOOOOOOOOOOOOOOOOOOOOOOOOOOOOOOOOOOOOOOOOOOOOOOOOOOOOOOOOOOOOOOO",
"OOOOOOOOOOOOOOOOOOOOOOOOOOOOOOOOOOOOOOOOOOOOOOOOOOOOOOOOOOOOOOOOOOOOOOOOOOOOOOOO",
"OOOOOOOOOOOOOOOOooooooooOOOOOOOOOOOOOOOOOOOOOOOOOOOOOOOOooooooooOOOOOOOOOOOOOOOO",
"OOOOOOOOOOOOOOOOooooooooOOOOOOOOOOOOOOOOOOOOOOOOOOOOOOOOooooooooOOOOOOOOOOOOOOOO",
"OOOOOOOOOOOOooooooooooooooooOOOOOOOOOOOOOOOOOOOOOOOOooooooooooooooooOOOOOOOOOOOO",
"OOOOOOOOOOOOooooooooooooooooOOOOOOOOOOOOOOOOOOOOOOOOooooooooooooooooOOOOOOOOOOOO",
"OOOOOOOOOOooooooooooooooooooooOOOOOOOOOOOOOOOOOOOOooooooooooooooooooooOOOOOOOOOO",
"OOOOOOOOOOooooooooooooooooooooOOOOOOOOOOOOOOOOOOOOooooooooooooooooooooOOOOOOOOOO",
"OOOOOOOOooooooooooooooooooooooooOOOOOOOOOOOOOOOOooooooooooooooooooooooooOOOOOOOO",
"OOOOOOOOooooooooooooooooooooooooOOOOOOOOOOOOOOOOooooooooooooooooooooooooOOOOOOOO",
"OOOOOOOOooooooooooooooooooooooooOOOOOOOOOOOOOOOOooooooooooooooooooooooooOOOOOOOO",
"OOOOOOOOooooooooooooooooooooooooOOOOOOOOOOOOOOOOooooooooooooooooooooooooOOOOOOOO",
"OOOOOOOOoooooo    oooo    ooooooOOOOOOOOOOOOOOOOoooooo    oooo    ooooooOOOOOOOO",
"OOOOOOOOoooooo    oooo    ooooooOOOOOOOOOOOOOOOOoooooo    oooo    ooooooOOOOOOOO",
"OOOOOOoooooooo    oooo    ooooooooOOOOOOOOOOOOoooooooo    oooo    ooooooooOOOOOO",
"OOOOOOoooooooo    oooo    ooooooooOOOOOOOOOOOOoooooooo    oooo    ooooooooOOOOOO",
"OOOOOOooooooooooooooooooooooooooooOOOOOOOOOOOOooooooooooooooooooooooooooooOOOOOO",
"OOOOOOooooooooooooooooooooooooooooOOOOOOOOOOOOooooooooooooooooooooooooooooOOOOOO",
"OOOOOOooooooooooooooooooooooooooooOOOOOOOOOOOOooooooooooooooooooooooooooooOOOOOO",
"OOOOOOooooooooooooooooooooooooooooOOOOOOOOOOOOooooooooooooooooooooooooooooOOOOOO",
"OOOOOOoooo    oooo    oooo    ooooOOOOOOOOOOOOoooo    oooo    oooo    ooooOOOOOO",
"OOOOOOoooo    oooo    oooo    ooooOOOOOOOOOOOOoooo    oooo    oooo    ooooOOOOOO",
"OOOOOOoo  oooo    oooo    oooo  ooOOOOOOOOOOOOoo  oooo    oooo    oooo  ooOOOOOO",
"OOOOOOoo  oooo    oooo    oooo  ooOOOOOOOOOOOOoo  oooo    oooo    oooo  ooOOOOOO",
"OOOOOOooooooooooooooooooooooooooooOOOOOOOOOOOOooooooooooooooooooooooooooooOOOOOO",
"OOOOOOooooooooooooooooooooooooooooOOOOOOOOOOOOooooooooooooooooooooooooooooOOOOOO",
"OOOOOOooooOOooooooOOOOooooooOOooooOOOOOOOOOOOOooooooooOOooooooooOOooooooooOOOOOO",
"OOOOOOooooOOooooooOOOOooooooOOooooOOOOOOOOOOOOooooooooOOooooooooOOooooooooOOOOOO",
"OOOOOOooOOOOOOooooOOOOooooOOOOOOooOOOOOOOOOOOOOOooooOOOOOOooooOOOOOOooooOOOOOOOO",
"OOOOOOooOOOOOOooooOOOOooooOOOOOOooOOOOOOOOOOOOOOooooOOOOOOooooOOOOOOooooOOOOOOOO",
"OOOOOOOOOOOOOOOOOOOOOOOOOOOOOOOOOOOOOOOOOOOOOOOOOOOOOOOOOOOOOOOOOOOOOOOOOOOOOOOO",
"OOOOOOOOOOOOOOOOOOOOOOOOOOOOOOOOOOOOOOOOOOOOOOOOOOOOOOOOOOOOOOOOOOOOOOOOOOOOOOOO",
"OOOOOOOOOOOOOOOOOOOOOOOOOOOOOOOOOOOOOOOOOOOOOOOOOOOOOOOOOOOOOOOOOOOOOOOOOOOOOOOO",
"OOOOOOOOOOOOOOOOOOOOOOOOOOOOOOOOOOOOOOOOOOOOOOOOOOOOOOOOOOOOOOOOOOOOOOOOOOOOOOOO",
"OOOOOOOOOOOOOOOOOOOOOOOOOOOOOOOOOOOOOOOOOOOOOOOOOOOOOOOOOOOOOOOOOOOOOOOOOOOOOOOO",
"OOOOOOOOOOOOOOOOOOOOOOOOOOOOOOOOOOOOOOOOOOOOOOOOOOOOOOOOOOOOOOOOOOOOOOOOOOOOOOOO"
};
