/* XPM */
static const char *xpm_[] = {
/* columns rows colors chars-per-pixel */
"80 40 4 1 ",
"  c #ea82e5",
". c #2121FF",
"X c #DEDEFF",
"o c None",
/* pixels */
"oooooooooooooooooooooooooooooooooooooooooooooooooooooooooooooooooooooooooooooooo",
"oooooooooooooooooooooooooooooooooooooooooooooooooooooooooooooooooooooooooooooooo",
"oooooooooooooooooooooooooooooooooooooooooooooooooooooooooooooooooooooooooooooooo",
"oooooooooooooooooooooooooooooooooooooooooooooooooooooooooooooooooooooooooooooooo",
"oooooooooooooooooooooooooooooooooooooooooooooooooooooooooooooooooooooooooooooooo",
"oooooooooooooooooooooooooooooooooooooooooooooooooooooooooooooooooooooooooooooooo",
"oooooooooooooooo        oooooooooooooooooooooooooooooooo        oooooooooooooooo",
"oooooooooooooooo        oooooooooooooooooooooooooooooooo        oooooooooooooooo",
"oooooooooooo                oooooooooooooooooooooooo                oooooooooooo",
"oooooooooooo                oooooooooooooooooooooooo                oooooooooooo",
"oooooooooo                    oooooooooooooooooooo                    oooooooooo",
"oooooooooo                    oooooooooooooooooooo                    oooooooooo",
"oooooooo  XXXX        XXXX      oooooooooooooooo  XXXX        XXXX      oooooooo",
"oooooooo  XXXX        XXXX      oooooooooooooooo  XXXX        XXXX      oooooooo",
"ooooooooXXXXXXXX    XXXXXXXX    ooooooooooooooooXXXXXXXX    XXXXXXXX    oooooooo",
"ooooooooXXXXXXXX    XXXXXXXX    ooooooooooooooooXXXXXXXX    XXXXXXXX    oooooooo",
"oooooooo....XXXX    ....XXXX    oooooooooooooooo....XXXX    ....XXXX    oooooooo",
"oooooooo....XXXX    ....XXXX    oooooooooooooooo....XXXX    ....XXXX    oooooooo",
"oooooo  ....XXXX    ....XXXX      oooooooooooo  ....XXXX    ....XXXX      oooooo",
"oooooo  ....XXXX    ....XXXX      oooooooooooo  ....XXXX    ....XXXX      oooooo",
"oooooo    XXXX        XXXX        oooooooooooo    XXXX        XXXX        oooooo",
"oooooo    XXXX        XXXX        oooooooooooo    XXXX        XXXX        oooooo",
"oooooo                            oooooooooooo                            oooooo",
"oooooo                            oooooooooooo                            oooooo",
"oooooo                            oooooooooooo                            oooooo",
"oooooo                            oooooooooooo                            oooooo",
"oooooo                            oooooooooooo                            oooooo",
"oooooo                            oooooooooooo                            oooooo",
"oooooo                            oooooooooooo                            oooooo",
"oooooo                            oooooooooooo                            oooooo",
"oooooo    oo      oooo      oo    oooooooooooo        oo        oo        oooooo",
"oooooo    oo      oooo      oo    oooooooooooo        oo        oo        oooooo",
"oooooo  oooooo    oooo    oooooo  oooooooooooooo    oooooo    oooooo    oooooooo",
"oooooo  oooooo    oooo    oooooo  oooooooooooooo    oooooo    oooooo    oooooooo",
"oooooooooooooooooooooooooooooooooooooooooooooooooooooooooooooooooooooooooooooooo",
"oooooooooooooooooooooooooooooooooooooooooooooooooooooooooooooooooooooooooooooooo",
"oooooooooooooooooooooooooooooooooooooooooooooooooooooooooooooooooooooooooooooooo",
"oooooooooooooooooooooooooooooooooooooooooooooooooooooooooooooooooooooooooooooooo",
"oooooooooooooooooooooooooooooooooooooooooooooooooooooooooooooooooooooooooooooooo",
"oooooooooooooooooooooooooooooooooooooooooooooooooooooooooooooooooooooooooooooooo"
};
