/* XPM */
static const char *xpm_[] = {
/* columns rows colors chars-per-pixel */
"80 40 4 1 ",
"  c #ea82e5",
". c #2121FF",
"X c #DEDEFF",
"o c None",
/* pixels */
"oooooooooooooooooooooooooooooooooooooooooooooooooooooooooooooooooooooooooooooooo",
"oooooooooooooooooooooooooooooooooooooooooooooooooooooooooooooooooooooooooooooooo",
"oooooooooooooooooooooooooooooooooooooooooooooooooooooooooooooooooooooooooooooooo",
"oooooooooooooooooooooooooooooooooooooooooooooooooooooooooooooooooooooooooooooooo",
"oooooooooooooooooooooooooooooooooooooooooooooooooooooooooooooooooooooooooooooooo",
"oooooooooooooooooooooooooooooooooooooooooooooooooooooooooooooooooooooooooooooooo",
"oooooooooooooooo        oooooooooooooooooooooooooooooooo        oooooooooooooooo",
"oooooooooooooooo        oooooooooooooooooooooooooooooooo        oooooooooooooooo",
"oooooooooooo                oooooooooooooooooooooooo                oooooooooooo",
"oooooooooooo                oooooooooooooooooooooooo                oooooooooooo",
"oooooooooo                    oooooooooooooooooooo                    oooooooooo",
"oooooooooo                    oooooooooooooooooooo                    oooooooooo",
"oooooooo                        oooooooooooooooo                        oooooooo",
"oooooooo                        oooooooooooooooo                        oooooooo",
"oooooooo    XXXX        XXXX    oooooooooooooooo    XXXX        XXXX    oooooooo",
"oooooooo    XXXX        XXXX    oooooooooooooooo    XXXX        XXXX    oooooooo",
"oooooooo  XXXXXXXX    XXXXXXXX  oooooooooooooooo  XXXXXXXX    XXXXXXXX  oooooooo",
"oooooooo  XXXXXXXX    XXXXXXXX  oooooooooooooooo  XXXXXXXX    XXXXXXXX  oooooooo",
"oooooo    XXXXXXXX    XXXXXXXX    oooooooooooo    XXXXXXXX    XXXXXXXX    oooooo",
"oooooo    XXXXXXXX    XXXXXXXX    oooooooooooo    XXXXXXXX    XXXXXXXX    oooooo",
"oooooo    XX....XX    XX....XX    oooooooooooo    XX....XX    XX....XX    oooooo",
"oooooo    XX....XX    XX....XX    oooooooooooo    XX....XX    XX....XX    oooooo",
"oooooo      ....        ....      oooooooooooo      ....        ....      oooooo",
"oooooo      ....        ....      oooooooooooo      ....        ....      oooooo",
"oooooo                            oooooooooooo                            oooooo",
"oooooo                            oooooooooooo                            oooooo",
"oooooo                            oooooooooooo                            oooooo",
"oooooo                            oooooooooooo                            oooooo",
"oooooo                            oooooooooooo                            oooooo",
"oooooo                            oooooooooooo                            oooooo",
"oooooo    oo      oooo      oo    oooooooooooo        oo        oo        oooooo",
"oooooo    oo      oooo      oo    oooooooooooo        oo        oo        oooooo",
"oooooo  oooooo    oooo    oooooo  oooooooooooooo    oooooo    oooooo    oooooooo",
"oooooo  oooooo    oooo    oooooo  oooooooooooooo    oooooo    oooooo    oooooooo",
"oooooooooooooooooooooooooooooooooooooooooooooooooooooooooooooooooooooooooooooooo",
"oooooooooooooooooooooooooooooooooooooooooooooooooooooooooooooooooooooooooooooooo",
"oooooooooooooooooooooooooooooooooooooooooooooooooooooooooooooooooooooooooooooooo",
"oooooooooooooooooooooooooooooooooooooooooooooooooooooooooooooooooooooooooooooooo",
"oooooooooooooooooooooooooooooooooooooooooooooooooooooooooooooooooooooooooooooooo",
"oooooooooooooooooooooooooooooooooooooooooooooooooooooooooooooooooooooooooooooooo"
};
